assets/images/bg/backgound-part-3.svg

<?xml version="1.0" encoding="UTF-8" standalone="no"?>
<svg width="320px" height="730px" viewBox="0 0 320 730" version="1.1" xmlns="http://www.w3.org/2000/svg" xmlns:xlink="http://www.w3.org/1999/xlink">
    <!-- Generator: sketchtool 41.2 (35397) - http://www.bohemiancoding.com/sketch -->
    <title>AD3EFBDC-EA7B-407A-8F78-6063CF27E08A</title>
    <desc>Created with sketchtool.</desc>
    <defs></defs>
    <g id="Page-1" stroke="none" stroke-width="1" fill="none" fill-rule="evenodd">
        <g id="mobile" transform="translate(0.000000, -1022.000000)">
            <g id="фон-под-айфон" transform="translate(-1.000000, 1022.000000)">
                <path d="M240.958691,121 L292.719031,121 C301.710762,121 309,128.609095 309,138 C309,147.388841 301.709689,155 292.719031,155 L1,155" id="Rectangle-9" stroke="#ECECEC" stroke-width="2"></path>
                <path d="M68.5756211,629 L1,629" id="Rectangle-9" stroke="#ECECEC" stroke-width="2"></path>
                <path d="M1,28 L33.8821606,28 C44.9929365,28 54,38.0708609 54,50.5 C54,62.9264069 44.9916113,73 33.8821606,73 L0.5,73" id="Rectangle-9" stroke="#ECECEC" stroke-width="2"></path>
                <path d="M256,264 L321,264" id="Rectangle-9" stroke="#ECECEC" stroke-width="2"></path>
                <path d="M199,6 L321,6" id="Rectangle-9-Copy" stroke="#ECECEC" stroke-width="2"></path>
                <path d="M192.629627,238 L43.8774619,236.076512 C33.4517276,236.076512 25,226.212325 25,214.038256 C25,201.866863 33.4529711,192 43.8774619,192 L196,192" id="Rectangle-9" stroke="#EDEDED" stroke-width="2"></path>
                <path d="M286.629627,519.923621 L250.877462,520 C240.451728,520 232,510.152936 232,498 C232,485.849736 240.452971,476 250.877462,476 L321,476" id="Rectangle-9" stroke="#EDEDED" stroke-width="2"></path>
                <ellipse id="Oval-3" fill="#EDEDED" cx="285" cy="121" rx="4" ry="4"></ellipse>
                <ellipse id="Oval-3" fill="#EDEDED" cx="257" cy="264" rx="4" ry="4"></ellipse>
                <ellipse id="Oval-3" fill="#EDEDED" cx="200" cy="6" rx="4" ry="4"></ellipse>
                <path d="M1,507 L129,507" id="Rectangle-9-Copy" stroke="#ECECEC" stroke-width="2"></path>
                <path d="M215,723 L321,723.082031" id="Rectangle-9-Copy" stroke="#ECECEC" stroke-width="2"></path>
                <ellipse id="Oval-3" fill="#EDEDED" cx="62" cy="507" rx="4" ry="4"></ellipse>
                <ellipse id="Oval-3" fill="#EDEDED" cx="68" cy="629" rx="4" ry="4"></ellipse>
                <ellipse id="Oval-3" fill="#EDEDED" cx="129" cy="507" rx="4" ry="4"></ellipse>
                <ellipse id="Oval-3" fill="#EDEDED" cx="214" cy="723" rx="4" ry="4"></ellipse>
                <ellipse id="Oval-3" fill="#EDEDED" cx="285" cy="520" rx="4" ry="4"></ellipse>
                <ellipse id="Oval-3-Copy" fill="#EDEDED" cx="63" cy="236" rx="4" ry="4"></ellipse>
                <path d="M113.902538,368 L36.3833067,368 C22.9167783,368 12,356.586358 12,342.5 C12,328.416739 22.9183844,317 36.3833067,317 L185,317.402295" id="Rectangle-9" stroke="#EDEDED" stroke-width="2"></path>
                <path d="M111.768115,368 L262.578898,368 C283.798287,368 301,388.10288 301,412.913221 C301,437.718108 283.795756,457.826442 262.578898,457.826442 L1,457.826442" id="Rectangle-9" stroke="#EDEDED" stroke-width="2"></path>
            </g>
        </g>
    </g>
</svg>

<svg width="320" height="730" viewBox="0 0 320 730" xmlns="http://www.w3.org/2000/svg"><title>AD3EFBDC-EA7B-407A-8F78-6063CF27E08A</title><g transform="translate(-1)" fill="none" fill-rule="evenodd"><path d="M240.959 121h51.76c8.992 0 16.281 7.61 16.281 17 0 9.389-7.29 17-16.281 17H1m67.576 474H1M1 28h32.882C44.992 28 54 38.07 54 50.5 54 62.926 44.992 73 33.882 73H.5M256 264h65M199 6h122" stroke="#ECECEC" stroke-width="2"/><path d="M192.63 238l-148.753-1.923c-10.425 0-18.877-9.865-18.877-22.039C25 201.867 33.453 192 43.877 192H196m90.63 327.924l-35.753.076C240.452 520 232 510.153 232 498c0-12.15 8.453-22 18.877-22H321" stroke="#EDEDED" stroke-width="2"/><ellipse fill="#EDEDED" cx="285" cy="121" rx="4" ry="4"/><ellipse fill="#EDEDED" cx="257" cy="264" rx="4" ry="4"/><ellipse fill="#EDEDED" cx="200" cy="6" rx="4" ry="4"/><path d="M1 507h128m86 216l106 .082" stroke="#ECECEC" stroke-width="2"/><ellipse fill="#EDEDED" cx="62" cy="507" rx="4" ry="4"/><ellipse fill="#EDEDED" cx="68" cy="629" rx="4" ry="4"/><ellipse fill="#EDEDED" cx="129" cy="507" rx="4" ry="4"/><ellipse fill="#EDEDED" cx="214" cy="723" rx="4" ry="4"/><ellipse fill="#EDEDED" cx="285" cy="520" rx="4" ry="4"/><ellipse fill="#EDEDED" cx="63" cy="236" rx="4" ry="4"/><path d="M113.903 368h-77.52C22.917 368 12 356.586 12 342.5c0-14.083 10.918-25.5 24.383-25.5l148.617.402M111.768 368h150.81c21.22 0 38.422 20.103 38.422 44.913 0 24.805-17.204 44.913-38.421 44.913H1" stroke="#EDEDED" stroke-width="2"/></g></svg>
